;FLAVOR:Marlin
;TIME:4014
;Filament used: 2.54568m
;Layer height: 0.2
;MINX:95.456
;MINY:103.622
;MINZ:0.2
;MAXX:139.542
;MAXY:131.378
;MAXZ:31.8
;POSTPROCESSED
;Generated with Cura_SteamEngine 4.10.0
M140 S80
M105
M190 S80
M104 S240
M105
M109 S240
M82 ;absolute extrusion mode
; Ender 3 Custom Start G-code
G92 E0 ; Reset Extruder
M92 E96.8 ; exruder ayarim
G28 ; Home all axes
G29 ; BLTouch Kalibrasyonu
G1 Z2.0 F3000 ; Move Z Axis up little to prevent scratching of Heat Bed
G1 X0.1 Y20 Z0.3 F5000.0 ; Move to start position
G1 E10 F1000 ; exruder ileri surmek
G1 X0.1 Y200.0 Z0.3 F1500.0 E15 ; Draw the first line
G1 X0.4 Y200.0 Z0.3 F5000.0 ; Move to side a little
G1 X0.4 Y20 Z0.3 F1500.0 E30 ; Draw the second line
G92 E0 ; Reset Extruder
G1 Z2.0 F3000 ; Move Z Axis up little to prevent scratching of Heat Bed
G1 X5 Y20 Z0.3 F5000.0 ; Move over to prevent blob squish
G92 E0
G92 E0
G1 F2700 E-5
;LAYER_COUNT:157
;LAYER:0
M107
G1 F300 Z0.6
;MESH:ABS 220-230.3mf
G0 F6000 X127.6 Y118.67 Z0.6
;TYPE:WALL-OUTER
G1 F300 Z0.2
G1 F2700 E0
G1 F1200 X127.188 Y117.867 E0.04503
G1 X127.29 Y117.817 E0.05069
G1 X127.491 Y117.628 E0.06446
G1 X127.603 Y117.485 E0.07352
G1 X127.6 Y118.67 E0.13264
G1 F2700 E-4.86736
G1 F300 Z0.6
G0 F6000 X111.43 Y117.207 Z0.6
G1 F300 Z0.2
G1 F2700 E0.13264
G1 F1200 X111.404 Y116.895 E0.14826
G1 X111.43 Y116.892 E0.14957
G1 X111.43 Y117.207 E0.16528
G1 F2700 E-4.83472
G1 F300 Z0.6
G0 F6000 X105.999 Y121.255 Z0.6
;TYPE:WALL-INNER
G1 F300 Z0.2
G1 F2700 E0.16528
G1 F1200 X105.863 Y121.292 E0.17231
G1 X105.696 Y121.338 E0.18096
G1 X105.342 Y121.447 E0.19944
G1 X105.315 Y121.456 E0.20086
G1 X105.01 Y121.564 E0.217
G1 X104.769 Y121.656 E0.22987
G1 X104.693 Y121.685 E0.23393
G1 X104.374 Y121.823 E0.25127
G1 X104.057 Y121.978 E0.26887
G1 X103.521 Y122.282 E0.29961
G1 X103.014 Y122.63 E0.33029
G1 X102.555 Y123.011 E0.36005
G1 X102.146 Y123.415 E0.38873
G1 X101.848 Y123.759 E0.41144
G1 X101.779 Y123.839 E0.41671
G1 X101.532 Y124.177 E0.4376
G1 X101.453 Y124.285 E0.44427
G1 X101.403 Y124.365 E0.44898
G1 X101.356 Y124.438 E0.45331
G1 X101.345 Y124.329 E0.4544
G1 X101.342 Y124.301
G1 X101.3 Y124.008 E0.46246
G1 X101.286 Y123.921 E0.4627
G1 X101.269 Y123.817 E0.46756
G1 X101.213 Y123.482 E0.4845
G1 X101.138 Y123.006 E0.50854
G1 X101.098 Y122.656 E0.52612
G1 X101.083 Y122.36 E0.5409
G1 X101.098 Y122.063 E0.55574
G1 X101.139 Y121.809 E0.56858
G1 X101.231 Y121.498 E0.58476
G1 X101.352 Y121.214 E0.60016
G1 X101.527 Y120.895 E0.61831
G1 X101.67 Y120.674 E0.63144
G1 X101.79 Y120.505 E0.64178
G1 X101.961 Y120.283 E0.65576
G1 X102.144 Y120.065 E0.66996
G1 X102.372 Y119.811 E0.68699
G1 X102.478 Y119.7 E0.69465
G1 X102.579 Y119.595 E0.70192
G1 X102.841 Y119.337 E0.72026
G1 X102.865 Y119.314 E0.72192
G1 X102.897 Y119.393
G1 X102.902 Y119.402
G1 X102.976 Y119.527 E0.72809
G1 X103.37 Y120.187 E0.76644
G1 X104.088 Y120.72 E0.81106
G1 X104.613 Y121.002 E0.84079
G1 X104.885 Y121.084 E0.85496
G1 X105.132 Y121.158 E0.86495
G1 X105.219 Y121.185 E0.86543
G1 X105.37 Y121.202 E0.86836
G1 X105.707 Y121.241 E0.87292
G1 X105.853 Y121.258 E0.87324
G1 X105.999 Y121.255 E0.87365
G0 F6000 X106.204 Y121.821
G1 F1200 X105.864 Y121.914 E0.89123
G1 X105.53 Y122.017 E0.90867
G1 X105.217 Y122.127 E0.92522
G1 X104.919 Y122.241 E0.94114
G1 X104.625 Y122.368 E0.95712
G1 X104.337 Y122.509 E0.97312
G1 X103.839 Y122.791 E1.00167
G1 X103.376 Y123.109 E1.02969
G1 X102.958 Y123.456 E1.05679
G1 X102.584 Y123.825 E1.08301
G1 X102.249 Y124.213 E1.10858
G1 X101.949 Y124.623 E1.13393
G1 X101.679 Y125.05 E1.15913
G1 X101.436 Y125.499 E1.1846
G1 X101.226 Y125.962 E1.20997
G1 X101.207 Y126.011 E1.21259
G1 X101.061 Y126.386 E1.23266
G1 X101.045 Y126.426 E1.23481
G1 X100.963 Y126.66 E1.24718
G1 X100.929 Y126.763 E1.2526
G1 X100.791 Y127.169 E1.27399
G1 X100.762 Y127.254 E1.27847
G1 X100.638 Y127.584 E1.29606
G1 X100.611 Y127.654 E1.2998
G1 X100.452 Y128 E1.3188
G1 X100.436 Y128.03 E1.32049
G1 X100.374 Y128.142 E1.32688
G1 X100.181 Y128.433 E1.3443
G1 X100.171 Y128.448 E1.3452
G1 X100.149 Y128.473 E1.34686
G1 X99.909 Y128.754 E1.3653
G1 X99.832 Y128.824 E1.37049
G1 X99.605 Y129.031 E1.38582
G1 X99.486 Y129.115 E1.39308
G1 X99.221 Y129.303 E1.40929
G1 X99.136 Y129.353 E1.41421
G1 X99 Y129.433 E1.42209
G1 X98.924 Y129.472 E1.42635
G1 X98.971 Y129.411 E1.42637
G1 X99.085 Y129.267 E1.42809
G1 X99.116 Y129.226
G1 X99.345 Y128.917 E1.43523
G1 X99.376 Y128.872
G1 X99.593 Y128.562 E1.44608
G1 X99.6 Y128.552
G1 X99.819 Y128.218 E1.45942
G1 X99.83 Y128.201
G1 X99.995 Y127.92 E1.4709
G1 X100.053 Y127.821 E1.47499
G1 X100.064 Y127.8
G1 X100.239 Y127.462 E1.48852
G1 X100.251 Y127.439
G1 X100.405 Y127.095 E1.50131
G1 X100.427 Y127.046 E1.50174
G1 X100.569 Y126.642 E1.51539
G1 X100.591 Y126.56 E1.51711
G1 X100.656 Y126.321 E1.52547
G1 X100.679 Y126.238 E1.52759
G1 X100.744 Y125.875 E1.54107
G1 X100.752 Y125.835 E1.54266
G1 X100.789 Y125.441 E1.56241
G1 X100.797 Y125.07 E1.58092
G1 X100.781 Y124.721 E1.59835
G1 X100.749 Y124.4 E1.61444
G1 X100.707 Y124.099 E1.62961
G1 X100.621 Y123.58 E1.65585
G1 X100.545 Y123.1 E1.6801
G1 X100.543 Y123.075 E1.68135
G1 X100.5 Y122.709 E1.69973
G1 X100.485 Y122.39 E1.71567
G1 X100.483 Y122.359 E1.71722
G1 X100.501 Y122 E1.73515
G1 X100.554 Y121.672 E1.75173
G1 X100.665 Y121.294 E1.77138
G1 X100.808 Y120.959 E1.78955
G1 X101.015 Y120.581 E1.81105
G1 X101.172 Y120.338 E1.82549
G1 X101.307 Y120.148 E1.83712
G1 X101.486 Y119.916 E1.85173
G1 X101.697 Y119.664 E1.86813
G1 X101.925 Y119.41 E1.88516
G1 X102.158 Y119.167 E1.90196
G1 X102.448 Y118.882 E1.92224
G1 X102.844 Y118.515 E1.94918
G1 X103.024 Y118.349 E1.96139
G1 X103.153 Y118.229 E1.97018
G1 X103.203 Y118.541 E1.97737
G1 X103.294 Y118.768 E1.98674
G1 X103.437 Y119.127 E2.00602
G1 X103.824 Y119.777 E2.04376
G1 X104.41 Y120.212 E2.08017
G1 X104.844 Y120.445 E2.10475
G1 X105.341 Y120.595 E2.13065
G1 X105.882 Y120.657 E2.15781
G1 X106.466 Y120.646 E2.18695
G1 X106.898 Y120.58 E2.20876
G1 X107.289 Y120.454 E2.22925
G1 X107.694 Y120.28 E2.25124
G1 X107.816 Y120.193 E2.25872
G1 X107.841 Y120.212 E2.26029
G1 X108.276 Y120.445 E2.2849
G1 X108.773 Y120.595 E2.31081
G1 X109.314 Y120.657 E2.33797
G1 X109.763 Y120.648 E2.36038
G1 X109.898 Y120.646 E2.36711
G1 X110.23 Y120.595 E2.38387
G1 X110.23 Y120.644
G1 X110.23 Y120.779 E2.38954
G1 X110.233 Y121.223 E2.41169
G1 X109.991 Y121.242 E2.4238
G1 X109.477 Y121.288 E2.44955
G1 X108.965 Y121.341 E2.47523
G1 X108.48 Y121.4 E2.4996
G1 X108.006 Y121.464 E2.52347
G1 X107.57 Y121.533 E2.54549
G1 X107.157 Y121.608 E2.56643
G1 X106.767 Y121.687 E2.58628
G1 X106.408 Y121.769 E2.60465
G1 X106.204 Y121.821 E2.61516
G0 F6000 X106.357 Y122.401
G1 F1200 X106.032 Y122.49 E2.63197
G1 X105.718 Y122.587 E2.64836
G1 X105.424 Y122.69 E2.66391
G1 X105.145 Y122.797 E2.67881
G1 X104.876 Y122.913 E2.69343
G1 X104.617 Y123.04 E2.70782
G1 X104.157 Y123.3 E2.73418
G1 X103.738 Y123.588 E2.75955
G1 X103.361 Y123.901 E2.78399
G1 X103.023 Y124.235 E2.8077
G1 X102.719 Y124.587 E2.83091
G1 X102.445 Y124.961 E2.85404
G1 X102.197 Y125.353 E2.87718
G1 X101.974 Y125.766 E2.90059
G1 X101.779 Y126.195 E2.9241
G1 X101.608 Y126.634 E2.94761
G1 X101.53 Y126.856 E2.95935
G1 X101.325 Y127.461 E2.99122
G1 X101.165 Y127.884 E3.01378
G1 X100.988 Y128.27 E3.03497
G1 X100.885 Y128.458 E3.04566
G1 X100.652 Y128.809 E3.06668
G1 X100.344 Y129.169 E3.09032
G1 X100.169 Y129.338 E3.10245
G1 X99.976 Y129.503 E3.11512
G1 X99.772 Y129.657 E3.12787
G1 X99.537 Y129.814 E3.14197
G1 X99.288 Y129.96 E3.15637
G1 X99 Y130.108 E3.17253
G1 X98.702 Y130.242 E3.18883
G1 X98.421 Y130.352 E3.20389
G1 X98.153 Y130.443 E3.21801
G1 X98.101 Y130.46 E3.22074
G1 X97.801 Y130.545 E3.23629
G1 X97.727 Y130.561 E3.24007
G1 X97.506 Y130.612 E3.25138
G1 X97.472 Y130.617 E3.2531
G1 X97.251 Y130.654 E3.26428
G1 X97.357 Y130.506 E3.26525
G1 X97.435 Y130.398 E3.26639
G1 X97.498 Y130.315 E3.26742
G1 X97.631 Y130.141 E3.27424
G1 X97.657 Y130.108 E3.27493
G1 X97.691 Y130.065 E3.2776
G1 X98.108 Y129.541 E3.31101
G1 X98.608 Y128.903 E3.35145
G1 X98.858 Y128.566 E3.37238
G1 X99.096 Y128.226 E3.39309
G1 X99.32 Y127.884 E3.41348
G1 X99.528 Y127.531 E3.43392
G1 X99.71 Y127.179 E3.45369
G1 X99.869 Y126.823 E3.47315
G1 X99.996 Y126.463 E3.49219
G1 X100.093 Y126.106 E3.51065
G1 X100.157 Y125.753 E3.52855
G1 X100.19 Y125.406 E3.54594
G1 X100.197 Y125.078 E3.5623
G1 X100.182 Y124.765 E3.57794
G1 X100.153 Y124.471 E3.59268
G1 X100.114 Y124.189 E3.60688
G1 X100.029 Y123.679 E3.63267
G1 X99.952 Y123.194 E3.65717
G1 X99.95 Y123.169 E3.65843
G1 X99.902 Y122.762 E3.67887
G1 X99.885 Y122.388 E3.69755
G1 X99.883 Y122.359 E3.699
G1 X99.904 Y121.937 E3.72008
G1 X99.968 Y121.541 E3.74009
G1 X100.016 Y121.352 E3.74982
G1 X100.093 Y121.111 E3.76244
G1 X100.157 Y120.944 E3.77137
G1 X100.267 Y120.699 E3.78476
G1 X100.382 Y120.476 E3.79728
G1 X100.511 Y120.255 E3.81005
G1 X100.672 Y120.006 E3.82484
G1 X100.832 Y119.781 E3.83862
G1 X101.026 Y119.53 E3.85444
G1 X101.25 Y119.263 E3.87183
G1 X101.478 Y119.009 E3.88886
G1 X101.737 Y118.739 E3.90753
G1 X102.027 Y118.454 E3.92781
G1 X102.819 Y117.721 E3.98165
G1 X103.059 Y117.499 E3.99796
G1 X102.817 Y117.28 E4.00822
G1 X102.013 Y116.556 E4.0622
G1 X101.734 Y116.284 E4.08164
G1 X101.477 Y116.017 E4.10013
G1 X101.247 Y115.762 E4.11726
G1 X101.031 Y115.505 E4.13401
G1 X100.851 Y115.271 E4.14874
G1 X100.656 Y114.999 E4.16544
G1 X100.522 Y114.79 E4.17782
G1 X100.509 Y114.771 E4.17897
G1 X100.369 Y114.532 E4.19279
G1 X100.253 Y114.308 E4.20538
G1 X100.081 Y113.892 E4.22784
G1 X100.018 Y113.694 E4.2382
G1 X99.925 Y113.273 E4.25971
G1 X99.884 Y112.879 E4.27947
G1 X99.884 Y112.461 E4.30033
G1 X99.921 Y112.016 E4.32261
G1 X99.944 Y111.835 E4.33171
G1 X100.106 Y110.837 E4.38215
G1 X100.145 Y110.556 E4.3963
G1 X100.174 Y110.261 E4.41109
G1 X100.188 Y109.948 E4.42672
G1 X100.182 Y109.62 E4.44309
G1 X100.148 Y109.273 E4.46049
G1 X100.084 Y108.92 E4.47838
G1 X99.986 Y108.562 E4.4969
G1 X99.859 Y108.204 E4.51585
G1 X99.7 Y107.847 E4.53535
G1 X99.516 Y107.494 E4.55521
G1 X99.309 Y107.144 E4.5755
G1 X99.085 Y106.801 E4.59594
G1 X98.845 Y106.461 E4.6167
G1 X98.595 Y106.125 E4.63759
G1 X98.095 Y105.488 E4.67799
G1 X97.68 Y104.966 E4.71126
G1 X97.638 Y104.912 E4.71468
G1 X97.618 Y104.887 E4.71627
G1 X97.486 Y104.715 E4.72709
G1 X97.421 Y104.63 E4.73243
G1 X97.291 Y104.45 E4.74351
G1 X97.251 Y104.395 E4.7469
G1 X97.367 Y104.394 E4.74707
G1 X97.464 Y104.413
G1 X97.652 Y104.451 E4.75076
G1 X97.717 Y104.466 E4.7512
G1 X97.787 Y104.483 E4.75237
G1 X98.075 Y104.564 E4.76465
G1 X98.14 Y104.585 E4.76794
G1 X98.391 Y104.67 E4.78117
G1 X98.689 Y104.787 E4.79714
G1 X99 Y104.926 E4.81413
G1 X99.257 Y105.058 E4.82855
G1 X99.509 Y105.203 E4.84305
G1 X99.743 Y105.359 E4.85708
G1 X99.976 Y105.535 E4.87165
G1 X100.155 Y105.687 E4.88337
G1 X100.344 Y105.869 E4.89646
G1 X100.358 Y105.885 E4.89752
G1 X100.482 Y106.021 E4.9067
G1 X100.644 Y106.222 E4.91958
G1 X100.662 Y106.25 E4.92124
G1 X100.869 Y106.562 E4.93992
G1 X101.067 Y106.941 E4.96125
G1 X101.224 Y107.318 E4.98163
G1 X101.299 Y107.524 E4.99256
G1 X101.598 Y108.387 E5.03813
G1 X101.768 Y108.828 E5.06171
G1 X101.967 Y109.259 E5.08539
G1 X102.189 Y109.67 E5.1087
G1 X102.437 Y110.063 E5.13188
G1 X102.713 Y110.436 E5.15503
G1 X103.015 Y110.787 E5.17813
G1 X103.354 Y111.122 E5.20191
G1 X103.731 Y111.433 E5.22629
G1 X104.151 Y111.723 E5.25176
G1 X104.612 Y111.981 E5.27811
G1 X104.869 Y112.106 E5.29237
G1 X105.137 Y112.222 E5.30694
G1 X105.419 Y112.331 E5.32203
G1 X105.715 Y112.432 E5.33763
G1 X106.026 Y112.529 E5.35388
G1 X106.357 Y112.619 E5.37099
G1 X106.705 Y112.704 E5.38887
G1 X107.069 Y112.783 E5.40745
G1 X107.268 Y112.822 E5.41757
G1 X107.663 Y112.892 E5.43758
G1 X107.876 Y112.926 E5.44834
G1 X108.308 Y112.989 E5.47012
G1 X108.769 Y113.049 E5.49332
G1 X109.255 Y113.103 E5.51771
G1 X109.768 Y113.153 E5.54343
G1 X110.311 Y113.197 E5.57061
G1 X110.883 Y113.238 E5.59922
G1 X111.796 Y113.291 E5.64484
G1 X112.448 Y113.321 E5.67741
G1 X113.132 Y113.345 E5.71155
G1 X114.216 Y113.375 E5.76565
G1 X115.381 Y113.395 E5.82378
G1 X116.626 Y113.405 E5.8859
G1 X117.5 Y113.406 E5.9295
G1 X118.764 Y113.402 E5.99256
G1 X119.618 Y113.392 E6.03517
G1 X120.782 Y113.37 E6.09326
G1 X121.515 Y113.351 E6.12984
G1 X122.215 Y113.327 E6.16478
G1 X122.881 Y113.298 E6.19804
G1 X123.515 Y113.266 E6.22971
G1 X124.385 Y113.21 E6.2732
G1 X124.963 Y113.165 E6.30213
G1 X125.49 Y113.117 E6.32853
G1 X125.971 Y113.067 E6.35266
G1 X126.447 Y113.009 E6.37658
G1 X126.895 Y112.948 E6.39914
G1 X127.318 Y112.881 E6.4205
G1 X127.72 Y112.809 E6.44088
G1 X128.111 Y112.729 E6.46079
G1 X128.455 Y112.651 E6.47839
G1 X128.647 Y112.602 E6.48827
G1 X128.971 Y112.513 E6.50504
G1 X129.284 Y112.416 E6.52138
G1 X129.58 Y112.313 E6.53702
G1 X129.861 Y112.204 E6.55206
G1 X130.128 Y112.088 E6.56658
G1 X130.386 Y111.963 E6.58088
G1 X130.846 Y111.704 E6.60722
G1 X131.267 Y111.414 E6.63273
G1 X131.643 Y111.101 E6.65713
G1 X131.98 Y110.767 E6.68081
G1 X132.284 Y110.414 E6.70405
G1 X132.558 Y110.041 E6.72714
G1 X132.806 Y109.647 E6.75036
G1 X133.028 Y109.235 E6.77371
G1 X133.224 Y108.805 E6.79729
G1 X133.395 Y108.363 E6.82093
G1 X133.689 Y107.504 E6.86623
G1 X133.837 Y107.113 E6.88709
G1 X134.018 Y106.724 E6.90849
G1 X134.238 Y106.349 E6.93018
G1 X134.495 Y106.01 E6.95141
G1 X134.52 Y105.985 E6.95317
G1 X134.836 Y105.659 E6.97582
G1 X134.987 Y105.531 E6.9857
G1 X135.013 Y105.508 E6.98743
G1 X135.241 Y105.335 E7.00171
G1 X135.474 Y105.181 E7.01564
G1 X135.72 Y105.037 E7.02986
G1 X135.741 Y105.027 E7.03102
G1 X136.012 Y104.888 E7.04622
G1 X136.3 Y104.758 E7.06198
G1 X136.587 Y104.645 E7.07737
G1 X136.847 Y104.557 E7.09107
G1 X136.898 Y104.54 E7.09375
G1 X137.205 Y104.454 E7.10965
G1 X137.271 Y104.439 E7.11303
G1 X137.488 Y104.39 E7.12413
G1 X137.525 Y104.384 E7.126
G1 X137.749 Y104.346 E7.13733
G1 X137.64 Y104.498 E7.13839
G1 X137.563 Y104.605 E7.13946
G1 X137.505 Y104.682 E7.14027
G1 X137.367 Y104.862 E7.14741
G1 X137.343 Y104.892 E7.14791
G1 X137.31 Y104.934 E7.1505
G1 X136.889 Y105.464 E7.18427
G1 X136.389 Y106.103 E7.22475
G1 X136.14 Y106.439 E7.24562
G1 X135.902 Y106.779 E7.26632
G1 X135.679 Y107.122 E7.28673
G1 X135.471 Y107.475 E7.30717
G1 X135.29 Y107.827 E7.32692
G1 X135.131 Y108.185 E7.34646
G1 X135.005 Y108.541 E7.36531
G1 X134.908 Y108.899 E7.38381
G1 X134.844 Y109.253 E7.40176
G1 X134.811 Y109.599 E7.4191
G1 X134.805 Y109.928 E7.43551
G1 X134.821 Y110.241 E7.45115
G1 X134.85 Y110.536 E7.46594
G1 X134.889 Y110.815 E7.47999
G1 X135.044 Y111.764 E7.52797
G1 X135.049 Y111.791 E7.52934
G1 X135.101 Y112.234 E7.55159
G1 X135.118 Y112.612 E7.57047
G1 X135.12 Y112.642 E7.57197
G1 X135.099 Y113.062 E7.59295
G1 X135.035 Y113.459 E7.61301
G1 X134.911 Y113.889 E7.63534
G1 X134.742 Y114.293 E7.65718
G1 X134.622 Y114.524 E7.67017
G1 X134.493 Y114.746 E7.68298
G1 X134.337 Y114.987 E7.6973
G1 X134.16 Y115.236 E7.71255
G1 X133.962 Y115.49 E7.72861
G1 X133.758 Y115.734 E7.74448
G1 X133.516 Y116.003 E7.76253
G1 X133.262 Y116.268 E7.78085
G1 X132.973 Y116.552 E7.80106
G1 X132.929 Y116.592 E7.80403
G1 X132.496 Y116.993 E7.83347
G1 X132.341 Y117.136 E7.84399
G1 X132.311 Y117.164 E7.84604
G1 X132.235 Y117.234 E7.85119
G1 X132.12 Y117.341 E7.85903
G1 X132.118 Y117.343 E7.85917
G1 X132.094 Y116.93 E7.8745
G1 X132.094 Y116.929 E7.87455
G1 X132.048 Y116.681 E7.88714
G1 X132.033 Y116.603 E7.8911
G1 X131.985 Y116.436 E7.89977
G1 X131.876 Y116.125 E7.91621
G1 X131.803 Y115.996 E7.92361
G1 X131.652 Y115.734 E7.93869
G1 X131.639 Y115.72 E7.93965
G1 X132.271 Y114.466 E8.00971
G1 X131.34 Y113.943 E8.06298
G1 X130.924 Y113.759 E8.08567
G1 X130.448 Y113.626 E8.11033
G1 X129.943 Y113.56 E8.13574
G1 X129.463 Y113.562 E8.15969
G1 X129.002 Y113.614 E8.18283
G1 X128.507 Y113.759 E8.20857
G1 X128.096 Y113.977 E8.23178
G1 X127.814 Y114.15 E8.24828
G1 X127.458 Y114.555 E8.27518
G1 X127.238 Y114.9 E8.2956
G1 X127.229 Y114.926 E8.29697
G1 X127.223 Y114.941 E8.29778
G1 X127.063 Y114.866 E8.30279
G1 X126.576 Y114.764 E8.32761
G1 X126.277 Y114.748 E8.34255
G1 X125.877 Y114.8 E8.36268
G1 X125.625 Y114.871 E8.37574
G1 X123.533 Y114.871 E8.48011
G1 X123.307 Y114.796 E8.49199
G1 X122.785 Y114.746 E8.51815
