;FLAVOR:Marlin
;TIME:4052
;Filament used: 2.38775m
;Layer height: 0.2
;MINX:84.584
;MINY:91.936
;MINZ:0.28
;MAXX:150.419
;MAXY:143.063
;MAXZ:31.98
;POSTPROCESSED
;Generated with Cura_SteamEngine 4.10.0
M140 S65
M105
M190 S65
M104 S220
M105
M109 S220
M82 ;absolute extrusion mode
; Ender 3 Custom Start G-code
G92 E0 ; Reset Extruder
M92 E96.8 ; exruder ayarim
G28 ; Home all axes
G29 ; BLTouch Kalibrasyonu
G1 Z2.0 F3000 ; Move Z Axis up little to prevent scratching of Heat Bed
G1 X0.1 Y20 Z0.3 F5000.0 ; Move to start position
G1 E10 F1000 ; exruder ileri surmek
G1 X0.1 Y200.0 Z0.3 F1500.0 E15 ; Draw the first line
G1 X0.4 Y200.0 Z0.3 F5000.0 ; Move to side a little
G1 X0.4 Y20 Z0.3 F1500.0 E30 ; Draw the second line
G92 E0 ; Reset Extruder
G1 Z2.0 F3000 ; Move Z Axis up little to prevent scratching of Heat Bed
G1 X5 Y20 Z0.3 F5000.0 ; Move over to prevent blob squish
G92 E0
G92 E0
G1 F2700 E-5
;LAYER_COUNT:157
;LAYER:0
M107
G1 F300 Z0.78
G0 F6000 X88.267 Y95.329 Z0.78
;TYPE:SKIRT
G1 F300 Z0.28
G1 F2700 E0
G1 F1200 X88.81 Y94.85 E0.05057
G1 X88.973 Y94.715 E0.06536
G1 X89.736 Y94.135 E0.1323
G1 X90.545 Y93.62 E0.19928
G1 X91.394 Y93.175 E0.26623
G1 X92.593 Y92.689 E0.3566
G1 X92.842 Y92.604 E0.37497
G1 X93.761 Y92.332 E0.44192
G1 X94.701 Y92.138 E0.50896
G1 X95.369 Y92.049 E0.55602
G1 X95.629 Y92.022 E0.57428
G1 X96.586 Y91.962 E0.64126
G1 X97.47 Y91.979 E0.70301
G1 X97.857 Y92.001 E0.73009
G1 X98.294 Y92.034 E0.7607
G1 X98.42 Y92.046 E0.76954
G1 X99.196 Y92.146 E0.82419
G1 X99.798 Y92.245 E0.8668
G1 X102.73 Y92.782 E1.07499
G1 X105.205 Y93.163 E1.2499
G1 X107.69 Y93.474 E1.42482
G1 X110.171 Y93.712 E1.59891
G1 X112.687 Y93.883 E1.77504
G1 X115.194 Y93.982 E1.95029
G1 X117.684 Y94.01 E2.12421
G1 X120.185 Y93.967 E2.29892
G1 X122.675 Y93.854 E2.47302
G1 X125.197 Y93.668 E2.64965
G1 X127.673 Y93.414 E2.8235
G1 X130.146 Y93.09 E2.9977
G1 X132.629 Y92.693 E3.17334
G1 X134.709 Y92.307 E3.3211
G1 X134.898 Y92.27 E3.33455
G1 X135.236 Y92.209 E3.35854
G1 X135.787 Y92.118 E3.39754
G1 X136.609 Y92.012 E3.45543
G1 X137.1 Y91.974 E3.48983
G1 X137.501 Y91.951 E3.51788
G1 X138.46 Y91.936 E3.58488
G1 X139.554 Y92.017 E3.6615
G1 X139.906 Y92.06 E3.68627
G1 X140.853 Y92.216 E3.7533
G1 X141.783 Y92.45 E3.82028
G1 X142.947 Y92.865 E3.9066
G1 X143.136 Y92.944 E3.9209
G1 X144.005 Y93.35 E3.9879
G1 X144.836 Y93.827 E4.05482
G1 X145.625 Y94.372 E4.1218
G1 X146.366 Y94.981 E4.18879
G1 X146.732 Y95.323 E4.22378
G1 X146.897 Y95.484 E4.23988
G1 X147.555 Y96.182 E4.30688
G1 X148.153 Y96.932 E4.37388
G1 X148.685 Y97.729 E4.44081
G1 X149.15 Y98.568 E4.50781
G1 X149.543 Y99.443 E4.57481
G1 X149.862 Y100.347 E4.64176
G1 X150.104 Y101.275 E4.70875
G1 X150.298 Y102.466 E4.79303
G1 X150.331 Y102.768 E4.81425
G1 X150.395 Y103.725 E4.88124
G1 X150.38 Y104.683 E4.94816
G1 X150.327 Y105.304 E4.9917
G1 X150.24 Y106.063 E5.04506
G1 X150.067 Y107.412 E5.14005
G1 X149.816 Y109.941 E5.31756
G1 X149.64 Y112.424 E5.49142
G1 X149.534 Y114.895 E5.66417
G1 X149.498 Y117.418 E5.84041
G1 X149.534 Y119.921 E6.01526
G1 X149.64 Y122.435 E6.19101
G1 X149.812 Y124.87 E6.36151
G1 X150.223 Y128.741 E6.6334
G1 X150.284 Y129.22 E6.66713
G1 X150.33 Y129.637 E6.69643
G1 X150.372 Y130.099 E6.72883
G1 X150.419 Y131.057 E6.79582
G1 X150.386 Y132.015 E6.86278
G1 X150.273 Y132.967 E6.92974
G1 X150.081 Y133.907 E6.99675
G1 X149.812 Y134.827 E7.0637
G1 X149.307 Y136.073 E7.1576
G1 X149.203 Y136.292 E7.17454
G1 X148.756 Y137.141 E7.24155
G1 X148.24 Y137.949 E7.30851
G1 X147.658 Y138.711 E7.37549
G1 X147.015 Y139.422 E7.44244
G1 X146.314 Y140.077 E7.50945
G1 X145.562 Y140.672 E7.57643
G1 X144.499 Y141.356 E7.66472
G1 X144.295 Y141.472 E7.68111
G1 X143.443 Y141.911 E7.74805
G1 X142.557 Y142.277 E7.81501
G1 X141.476 Y142.612 E7.89406
G1 X141.235 Y142.674 E7.91144
G1 X140.297 Y142.874 E7.97843
G1 X139.346 Y142.996 E8.04539
G1 X138.835 Y143.028 E8.08116
G1 X138.489 Y143.042 E8.10534
G1 X137.367 Y143.032 E8.18371
G1 X137.07 Y143.015 E8.20449
G1 X135.886 Y142.886 E8.28768
G1 X135.516 Y142.826 E8.31386
G1 X135.154 Y142.761 E8.33955
G1 X134.526 Y142.638 E8.38424
G1 X131.991 Y142.182 E8.56415
G1 X129.521 Y141.809 E8.73862
G1 X127.035 Y141.506 E8.91355
G1 X124.562 Y141.275 E9.08703
G1 X122.022 Y141.109 E9.26482
G1 X119.565 Y141.019 E9.43654
G1 X117.037 Y140.998 E9.61312
G1 X114.538 Y141.048 E9.7877
G1 X112.012 Y141.169 E9.96434
G1 X109.564 Y141.357 E10.13582
G1 X107.061 Y141.62 E10.31161
G1 X104.551 Y141.956 E10.48849
G1 X102.1 Y142.356 E10.66195
G1 X100.661 Y142.633 E10.7643
G1 X99.891 Y142.777 E10.81901
G1 X99.289 Y142.873 E10.86159
G1 X98.731 Y142.947 E10.90091
G1 X97.852 Y143.03 E10.96258
G1 X97.471 Y143.051 E10.98923
G1 X96.512 Y143.063 E11.05622
G1 X95.87 Y143.027 E11.10113
G1 X95.645 Y143.008 E11.1169
G1 X94.694 Y142.888 E11.18385
G1 X94.049 Y142.76 E11.22978
G1 X93.117 Y142.507 E11.29723
G1 X92.886 Y142.434 E11.31415
G1 X91.984 Y142.108 E11.38114
G1 X91.113 Y141.707 E11.44812
G1 X90.278 Y141.235 E11.51511
G1 X89.486 Y140.695 E11.58206
G1 X88.887 Y140.217 E11.63559
G1 X88.669 Y140.031 E11.65561
G1 X87.966 Y139.379 E11.72257
G1 X87.32 Y138.671 E11.78952
G1 X86.735 Y137.911 E11.85651
G1 X86.215 Y137.105 E11.9235
G1 X85.765 Y136.258 E11.99049
G1 X85.386 Y135.377 E12.05748
G1 X85.083 Y134.467 E12.12447
G1 X84.856 Y133.536 E12.1914
G1 X84.682 Y132.34 E12.27582
G1 X84.652 Y132.015 E12.29861
G1 X84.603 Y131.057 E12.36561
G1 X84.635 Y130.099 E12.43256
G1 X84.7 Y129.468 E12.47687
G1 X84.742 Y129.144 E12.49969
G1 X85.043 Y126.562 E12.68125
G1 X85.263 Y124.065 E12.85634
G1 X85.413 Y121.541 E13.03294
G1 X85.489 Y119.082 E13.20477
G1 X85.497 Y116.557 E13.38114
G1 X85.432 Y114.053 E13.55609
G1 X85.299 Y111.587 E13.72858
G1 X85.092 Y109.058 E13.90581
G1 X84.814 Y106.556 E14.08164
G1 X84.713 Y105.799 E14.13499
G1 X84.653 Y105.291 E14.17071
G1 X84.584 Y104.334 E14.23773
G1 X84.595 Y103.375 E14.30472
G1 X84.686 Y102.421 E14.37165
G1 X84.888 Y101.339 E14.44853
G1 X84.954 Y101.06 E14.46856
G1 X85.213 Y100.136 E14.53558
G1 X85.549 Y99.238 E14.60255
G1 X85.958 Y98.371 E14.66951
G1 X86.438 Y97.541 E14.73648
G1 X86.986 Y96.753 E14.80352
G1 X87.597 Y96.014 E14.87049
G1 X88.267 Y95.329 E14.93742
G0 F6000 X88.805 Y95.649
G1 F1200 X89.192 Y95.312 E14.97326
G1 X89.355 Y95.177 E14.98804
G1 X90.099 Y94.613 E15.05325
G1 X90.889 Y94.115 E15.11848
G1 X91.718 Y93.686 E15.18367
G1 X92.787 Y93.256 E15.26415
G1 X93.036 Y93.171 E15.28253
G1 X93.931 Y92.908 E15.34769
G1 X94.846 Y92.722 E15.4129
G1 X95.431 Y92.645 E15.45412
G1 X95.691 Y92.618 E15.47237
G1 X96.623 Y92.562 E15.53759
G1 X97.436 Y92.578 E15.59438
G1 X97.823 Y92.6 E15.62146
G1 X98.237 Y92.631 E15.65046
G1 X98.363 Y92.643 E15.6593
G1 X99.099 Y92.738 E15.71113
G1 X99.701 Y92.837 E15.75374
G1 X102.64 Y93.375 E15.96243
G1 X105.108 Y93.755 E16.13684
G1 X107.625 Y94.07 E16.31402
G1 X110.144 Y94.312 E16.49077
G1 X112.66 Y94.482 E16.6669
G1 X115.163 Y94.582 E16.84187
G1 X117.687 Y94.61 E17.01817
G1 X120.186 Y94.567 E17.19274
G1 X122.746 Y94.451 E17.37173
G1 X125.232 Y94.268 E17.54584
G1 X127.742 Y94.011 E17.72207
G1 X130.214 Y93.686 E17.89622
G1 X132.747 Y93.282 E18.07537
G1 X134.818 Y92.897 E18.2225
G1 X135.013 Y92.859 E18.23638
G1 X135.334 Y92.801 E18.25916
G1 X135.885 Y92.71 E18.29817
G1 X136.664 Y92.61 E18.35303
G1 X137.135 Y92.573 E18.38603
G1 X137.536 Y92.55 E18.41408
G1 X138.469 Y92.536 E18.47925
G1 X139.482 Y92.612 E18.55021
G1 X139.834 Y92.655 E18.57498
G1 X140.755 Y92.808 E18.64019
G1 X141.659 Y93.039 E18.70536
G1 X142.716 Y93.418 E18.78379
G1 X142.905 Y93.497 E18.79809
G1 X143.75 Y93.894 E18.8633
G1 X144.558 Y94.361 E18.92849
G1 X145.323 Y94.896 E18.99369
G1 X146.313 Y95.753 E19.08515
G1 X146.478 Y95.914 E19.10125
G1 X147.118 Y96.594 E19.16647
G1 X147.697 Y97.326 E19.23166
G1 X148.211 Y98.105 E19.29685
G1 X148.657 Y98.925 E19.36205
G1 X149.031 Y99.781 E19.42729
G1 X149.331 Y100.665 E19.49249
G1 X149.553 Y101.572 E19.55771
G1 X149.702 Y102.531 E19.6255
G1 X149.735 Y102.833 E19.64672
G1 X149.796 Y103.765 E19.71196
G1 X149.778 Y104.698 E19.77713
G1 X149.731 Y105.237 E19.81492
G1 X149.645 Y105.986 E19.86758
G1 X149.467 Y107.378 E19.9656
G1 X149.222 Y109.84 E20.13841
G1 X149.041 Y112.394 E20.31725
G1 X148.934 Y114.895 E20.49209
G1 X148.898 Y117.418 E20.66833
G1 X148.934 Y119.955 E20.84555
G1 X149.038 Y122.434 E21.01885
G1 X149.217 Y124.948 E21.19489
G1 X149.623 Y128.783 E21.46425
G1 X149.689 Y129.296 E21.50037
G1 X149.732 Y129.691 E21.52813
G1 X149.774 Y130.153 E21.56053
G1 X149.819 Y131.086 E21.62577
G1 X149.784 Y132.019 E21.69098
G1 X149.668 Y132.945 E21.75617
G1 X149.475 Y133.858 E21.82134
G1 X149.203 Y134.752 E21.88661
G1 X148.765 Y135.816 E21.96698
G1 X148.661 Y136.035 E21.98391
G1 X148.225 Y136.86 E22.04909
G1 X147.72 Y137.645 E22.11428
G1 X147.149 Y138.384 E22.17951
G1 X146.517 Y139.072 E22.24476
G1 X145.829 Y139.702 E22.30992
G1 X145.089 Y140.272 E22.37516
G1 X144.203 Y140.834 E22.44845
G1 X143.999 Y140.95 E22.46484
G1 X143.168 Y141.377 E22.53009
G1 X142.304 Y141.73 E22.59528
G1 X141.327 Y142.031 E22.66669
G1 X141.086 Y142.093 E22.68407
G1 X140.172 Y142.287 E22.74933
G1 X138.811 Y142.428 E22.8449
G1 X138.465 Y142.442 E22.86909
G1 X137.401 Y142.433 E22.94341
G1 X137.104 Y142.416 E22.96419
G1 X135.982 Y142.293 E23.04302
G1 X135.612 Y142.233 E23.0692
G1 X135.269 Y142.172 E23.09354
G1 X134.682 Y142.057 E23.13532
G1 X132.082 Y141.59 E23.31982
G1 X129.613 Y141.217 E23.49423
G1 X127.092 Y140.909 E23.67162
G1 X124.583 Y140.675 E23.84763
G1 X122.083 Y140.512 E24.02261
G1 X119.557 Y140.419 E24.19916
G1 X117.03 Y140.398 E24.37567
G1 X114.497 Y140.448 E24.55263
G1 X112.007 Y140.568 E24.72675
G1 X109.491 Y140.761 E24.903
G1 X106.994 Y141.024 E25.07837
G1 X104.479 Y141.36 E25.25559
G1 X101.994 Y141.765 E25.43145
G1 X100.551 Y142.043 E25.53409
G1 X99.781 Y142.187 E25.5888
G1 X99.21 Y142.278 E25.62919
G1 X98.652 Y142.352 E25.66851
G1 X97.819 Y142.43 E25.72694
G1 X97.438 Y142.451 E25.75359
G1 X96.504 Y142.463 E25.81884
G1 X95.921 Y142.429 E25.85962
G1 X95.696 Y142.41 E25.8754
G1 X94.77 Y142.292 E25.9406
G1 X94.181 Y142.174 E25.98255
G1 X93.298 Y141.935 E26.04645
G1 X93.067 Y141.862 E26.06337
G1 X92.189 Y141.543 E26.12862
G1 X91.342 Y141.15 E26.19383
G1 X90.532 Y140.686 E26.25903
G1 X89.765 Y140.154 E26.32423
G1 X89.276 Y139.761 E26.36805
G1 X89.058 Y139.575 E26.38806
G1 X88.375 Y138.939 E26.45325
G1 X87.748 Y138.247 E26.51847
G1 X87.183 Y137.504 E26.58367
G1 X86.683 Y136.715 E26.64891
G1 X86.253 Y135.887 E26.71408
G1 X85.895 Y135.024 E26.77934
G1 X85.613 Y134.135 E26.84448
G1 X85.407 Y133.224 E26.90971
G1 X85.279 Y132.285 E26.97591
G1 X85.249 Y131.96 E26.9987
G1 X85.203 Y131.027 E27.06395
G1 X85.237 Y130.094 E27.12916
G1 X85.295 Y129.546 E27.16765
G1 X85.338 Y129.217 E27.19082
G1 X85.641 Y126.615 E27.37379
G1 X85.86 Y124.12 E27.54873
G1 X86.011 Y121.593 E27.72554
G1 X86.089 Y119.067 E27.90206
G1 X86.097 Y116.542 E28.07842
G1 X86.032 Y114.042 E28.2531
G1 X85.897 Y111.541 E28.42804
G1 X85.688 Y108.979 E28.60758
G1 X85.412 Y106.501 E28.78173
G1 X85.282 Y105.512 E28.8514
G1 X85.249 Y105.223 E28.87172
G1 X85.183 Y104.291 E28.93698
G1 X85.197 Y103.358 E29.00215
G1 X85.291 Y102.429 E29.06737
G1 X85.472 Y101.477 E29.13505
G1 X85.538 Y101.198 E29.15508
G1 X85.791 Y100.299 E29.22031
G1 X86.121 Y99.426 E29.2855
G1 X86.524 Y98.584 E29.3507
G1 X86.998 Y97.779 E29.41595
G1 X87.539 Y97.018 E29.48116
G1 X88.143 Y96.306 E29.54638
G1 X88.805 Y95.649 E29.61152
G0 F6000 X88.687 Y96.603
G1 F1200 X89.575 Y95.774 E29.69637
G1 X89.738 Y95.639 E29.71115
G1 X90.462 Y95.092 E29.77453
G1 X91.231 Y94.61 E29.83792
G1 X92.04 Y94.198 E29.90133
G1 X92.98 Y93.824 E29.97199
G1 X93.229 Y93.739 E29.99037
G1 X94.1 Y93.484 E30.05376
G1 X94.99 Y93.307 E30.11714
G1 X95.493 Y93.242 E30.15257
G1 X95.753 Y93.215 E30.17082
G1 X96.659 Y93.161 E30.23422
G1 X97.402 Y93.177 E30.28613
G1 X97.789 Y93.199 E30.3132
G1 X98.181 Y93.228 E30.34065
G1 X98.307 Y93.24 E30.34949
G1 X99.001 Y93.331 E30.39838
G1 X99.603 Y93.43 E30.441
G1 X102.546 Y93.968 E30.64996
G1 X105.048 Y94.353 E30.82677
G1 X107.532 Y94.663 E31.00162
G1 X110.081 Y94.909 E31.18048
G1 X112.631 Y95.081 E31.35899
G1 X115.167 Y95.182 E31.53626
G1 X117.691 Y95.21 E31.71257
G1 X120.223 Y95.167 E31.88944
G1 X122.747 Y95.052 E32.06592
G1 X125.301 Y94.864 E32.24479
G1 X127.811 Y94.607 E32.42102
G1 X130.311 Y94.279 E32.59713
G1 X132.84 Y93.875 E32.77601
G1 X134.869 Y93.498 E32.92016
G1 X135.129 Y93.447 E32.93866
G1 X135.432 Y93.393 E32.96016
G1 X135.983 Y93.302 E32.99917
G1 X136.719 Y93.207 E33.051
G1 X137.169 Y93.172 E33.08252
G1 X137.57 Y93.149 E33.11058
G1 X138.478 Y93.137 E33.174
G1 X139.409 Y93.208 E33.23922
G1 X139.761 Y93.251 E33.26399
G1 X140.656 Y93.401 E33.32737
G1 X141.535 Y93.628 E33.39078
G1 X142.484 Y93.972 E33.46129
G1 X142.673 Y94.051 E33.47559
G1 X143.494 Y94.437 E33.53896
G1 X144.278 Y94.895 E33.60238
G1 X145.019 Y95.419 E33.66577
G1 X145.894 Y96.182 E33.74686
G1 X146.059 Y96.343 E33.76296
G1 X146.68 Y97.005 E33.82636
G1 X147.241 Y97.719 E33.88978
G1 X147.736 Y98.479 E33.95313
G1 X148.162 Y99.28 E34.0165
G1 X148.517 Y100.116 E34.07993
G1 X148.796 Y100.979 E34.14328
G1 X148.998 Y101.864 E34.20669
G1 X149.105 Y102.596 E34.25836
G1 X149.138 Y102.898 E34.27958
G1 X149.197 Y103.804 E34.34299
G1 X149.176 Y104.711 E34.40636
G1 X149.134 Y105.17 E34.43855
G1 X149.05 Y105.91 E34.49057
G1 X148.87 Y107.316 E34.58958
G1 X148.622 Y109.808 E34.76449
G1 X148.444 Y112.323 E34.9406
G1 X148.334 Y114.896 E35.12047
G1 X148.298 Y117.418 E35.29664
G1 X148.334 Y119.953 E35.47372
G1 X148.441 Y122.5 E35.65178
G1 X148.616 Y124.968 E35.82459
G1 X149.031 Y128.877 E36.09915
G1 X149.094 Y129.372 E36.13401
G1 X149.135 Y129.745 E36.16022
G1 X149.177 Y130.207 E36.19262
G1 X149.219 Y131.114 E36.25604
G1 X149.181 Y132.021 E36.31944
G1 X149.064 Y132.921 E36.38283
G1 X148.868 Y133.807 E36.44621
G1 X148.594 Y134.672 E36.50959
G1 X148.223 Y135.558 E36.57668
G1 X148.119 Y135.777 E36.59361
G1 X147.694 Y136.579 E36.65701
G1 X147.2 Y137.341 E36.72044
G1 X146.641 Y138.055 E36.78377
G1 X146.021 Y138.718 E36.84718
G1 X145.346 Y139.324 E36.91053
G1 X144.619 Y139.868 E36.97396
G1 X143.906 Y140.313 E37.03266
G1 X143.702 Y140.429 E37.04905
G1 X142.894 Y140.842 E37.11243
G1 X142.053 Y141.183 E37.17582
G1 X141.177 Y141.45 E37.23978
G1 X140.936 Y141.512 E37.25716
G1 X140.048 Y141.699 E37.32055
G1 X138.786 Y141.829 E37.40916
G1 X138.44 Y141.843 E37.43334
G1 X137.435 Y141.834 E37.50354
G1 X137.138 Y141.817 E37.52432
G1 X136.078 Y141.701 E37.5988
G1 X135.708 Y141.641 E37.62498
G1 X135.384 Y141.583 E37.64797
G1 X134.76 Y141.461 E37.69238
G1 X132.208 Y141.002 E37.87349
G1 X129.671 Y140.619 E38.0527
G1 X127.151 Y140.311 E38.23002
G1 X124.643 Y140.077 E38.40595
G1 X122.109 Y139.912 E38.58332
G1 X119.583 Y139.819 E38.75987
G1 X117.023 Y139.798 E38.93868
G1 X114.492 Y139.848 E39.1155
G1 X111.968 Y139.97 E39.292
G1 X109.417 Y140.165 E39.47069
G1 X106.921 Y140.428 E39.646
G1 X104.407 Y140.764 E39.82315
G1 X101.888 Y141.175 E40.00142
G1 X100.44 Y141.453 E40.1044
G1 X99.67 Y141.597 E40.15912
G1 X99.131 Y141.684 E40.19725
G1 X98.573 Y141.758 E40.23657
G1 X97.786 Y141.831 E40.29177
G1 X97.405 Y141.852 E40.31842
G1 X96.497 Y141.862 E40.38185
G1 X95.971 Y141.831 E40.41865
G1 X95.746 Y141.812 E40.43442
G1 X94.846 Y141.696 E40.4978
G1 X94.313 Y141.589 E40.53578
G1 X93.478 Y141.363 E40.5962
G1 X93.247 Y141.29 E40.61312
G1 X92.395 Y140.979 E40.67647
G1 X91.573 Y140.594 E40.73987
G1 X90.788 Y140.138 E40.80327
G1 X90.047 Y139.615 E40.86662
G1 X89.666 Y139.305 E40.90093
G1 X89.448 Y139.119 E40.92095
G1 X88.784 Y138.5 E40.98435
G1 X88.177 Y137.825 E41.04776
G1 X87.632 Y137.099 E41.11116
G1 X87.153 Y136.328 E41.17456
G1 X86.744 Y135.518 E41.23794
G1 X86.408 Y134.675 E41.30132
G1 X86.147 Y133.806 E41.3647
G1 X85.963 Y132.917 E41.42811
G1 X85.877 Y132.23 E41.47647
G1 X85.847 Y131.905 E41.49926
G1 X85.803 Y130.998 E41.56269
G1 X85.84 Y130.091 E41.62609
G1 X85.89 Y129.624 E41.6589
G1 X85.933 Y129.298 E41.68186
G1 X86.239 Y126.666 E41.86694
G1 X86.459 Y124.17 E42.04195
G1 X86.611 Y121.613 E42.22086
G1 X86.689 Y119.088 E42.39731
G1 X86.697 Y116.564 E42.5736
G1 X86.63 Y113.994 E42.75317
G1 X86.496 Y111.495 E42.92796
